X:1
T:Ship of Fame, 86.86.66.86
T:Anonymous
T:Ship of Fame, 86.86.66.86
T:Public Domain
C:Anonymous
Z:Public Domain
%%score ( 1 2 ) ( 3 4 )
L:1/8
M:6/8
K:Ab
V:1 treble 
V:2 treble 
V:3 bass 
V:4 bass 
V:1
 E | [CA]2 [CA] [CA]2 [EB] | [Ec]2 [Ec] [Ec]2 [Fd] | [EB]2 [EA] [EG]2 [EB] | [EA]3- [EA]2 E | %5
 [CA]2 [CA] [CA]2 [EB] | [Ec]2 [Ec] [Ec]2 [Fd] | [EB]2 [EA] [EG]2 [EB] | [EA]3- [EA]2 [Ec] | %9
 [Ee]2 [Ee] [Ee]2 [Ec] | [Ed]3- [Ed]2 [EB] | [Ec]2 [Ec] [Ec]2 [EA] | [EB]3- [EB]2 E | %13
 [CA]2 [CA] [CA]2 [EB] | [Ec]2 [Ec] [Ec]2 [Fd] | [EB]2 [EA] [EG]2 [EB] | [EA]3- [EA]2 |] %17
V:2
 E | x6 | x6 | x6 | x5 E | x6 | x6 | x6 | x6 | x6 | x6 | x6 | x5 E | x6 | x6 | x6 | x5 |] %17
V:3
 E, | [A,,E,]2 [A,,E,] [A,,E,]2 [E,G,] | A,2 A, A,2 [D,A,] | [E,D]2 [E,C] [E,B,]2 [E,D] | %4
 [A,,C]3- [A,,C]2 E, | [A,,E,]2 [A,,E,] [A,,E,]2 [E,G,] | A,2 A, A,2 [D,A,] | %7
 [E,D]2 [E,C] [E,B,]2 [E,D] | [A,,C]3- [A,,C]2 A, | [A,C]2 [A,C] [A,C]2 A, | %10
 [E,B,]3- [E,B,]2 [E,G,] | [A,,A,]2 [A,,A,] [A,,A,]2 [C,A,] | [E,G,]3- [E,G,]2 E, | %13
 [A,,E,]2 [A,,E,] [A,,E,]2 [E,G,] | A,2 A, A,2 [D,A,] | [E,D]2 [E,C] [E,B,]2 [E,D] | %16
 [A,,C]3- [A,,C]2 |] %17
V:4
 E, | x6 | A,2 A, A,2 x | x6 | x5 E, | x6 | A,2 A, A,2 x | x6 | x5 A, | x5 A, | x6 | x6 | x5 E, | %13
 x6 | A,2 A, A,2 x | x6 | x5 |] %17

